dist/img/svg/pacMan.svg

<svg width="24" height="24" viewBox="0 0 24 24" xmlns="http://www.w3.org/2000/svg"><path d="M20.937 7.53C19.227 4.119 15.803 2 12 2 6.486 2 2 6.486 2 12s4.486 10 10 10c3.803 0 7.227-2.119 8.937-5.53a1 1 0 00-.397-1.316L15.017 12l5.522-3.153c.461-.264.636-.842.398-1.317zm-8.433 3.602a.999.999 0 000 1.736l6.173 3.525A7.949 7.949 0 0112 20c-4.411 0-8-3.589-8-8s3.589-8 8-8a7.95 7.95 0 016.677 3.606l-6.173 3.526z"/><path d="M11.5 9a1.5 1.5 0 100-3 1.5 1.5 0 000 3z"/></svg>

<svg width="24" height="24" viewBox="0 0 24 24" xmlns="http://www.w3.org/2000/svg">
<path d="M20.937 7.53C19.227 4.119 15.803 2 12 2C6.486 2 2 6.486 2 12C2 17.514 6.486 22 12 22C15.803 22 19.227 19.881 20.937 16.47C21.175 15.995 21 15.417 20.54 15.154L15.017 12L20.539 8.847C21 8.583 21.175 8.005 20.937 7.53ZM12.504 11.132C12.192 11.31 12 11.641 12 12C12 12.359 12.192 12.69 12.504 12.868L18.677 16.393C17.205 18.639 14.724 20 12 20C7.589 20 4 16.411 4 12C4 7.589 7.589 4 12 4C14.724 4 17.205 5.361 18.677 7.606L12.504 11.132Z"/>
<path d="M11.5 9C12.3284 9 13 8.32843 13 7.5C13 6.67157 12.3284 6 11.5 6C10.6716 6 10 6.67157 10 7.5C10 8.32843 10.6716 9 11.5 9Z"/>
</svg>
